Numix-GalliumOS/64/mimetypes/text-x-csharp.svg

<svg xmlns="http://www.w3.org/2000/svg" xmlns:xlink="http://www.w3.org/1999/xlink" width="64px" height="64px" viewBox="0 0 64 64" version="1.1">
<g id="surface1">
<path style=" stroke:none;fill-rule:nonzero;fill:rgb(17.647059%,17.647059%,17.647059%);fill-opacity:1;" d="M 10.671875 0 C 9.296875 0 8 1.355469 8 2.789062 L 8 61.210938 C 8 62.566406 9.375 64 10.671875 64 L 53.328125 64 C 54.625 64 56 62.566406 56 61.210938 L 56 18 L 38 0 Z M 10.671875 0 "/>
<path style=" stroke:none;fill-rule:nonzero;fill:rgb(0%,0%,0%);fill-opacity:0.196078;" d="M 42 18 L 56 32 L 56 18 Z M 42 18 "/>
<path style=" stroke:none;fill-rule:nonzero;fill:rgb(100%,100%,100%);fill-opacity:0.392157;" d="M 38 0 L 55.984375 18 L 40.757812 18 C 39.410156 18 38 16.574219 38 15.226562 Z M 38 0 "/>
<path style=" stroke:none;fill-rule:nonzero;fill:rgb(86.27451%,86.27451%,86.27451%);fill-opacity:1;" d="M 14.664062 37.15625 C 14.664062 35.875 14.867188 34.609375 15.265625 33.359375 C 15.671875 32.101562 16.25 30.976562 17 29.984375 C 17.765625 29 18.695312 28.195312 19.796875 27.585938 C 20.898438 26.976562 22.15625 26.664062 23.570312 26.664062 C 25.226562 26.664062 26.65625 27.09375 27.867188 27.9375 C 29.085938 28.789062 29.984375 29.898438 30.5625 31.257812 L 27.789062 33.421875 C 27.578125 32.828125 27.304688 32.335938 26.976562 31.9375 C 26.640625 31.523438 26.273438 31.203125 25.875 30.960938 C 25.492188 30.726562 25.085938 30.554688 24.671875 30.460938 C 24.25 30.34375 23.851562 30.28125 23.460938 30.28125 C 22.609375 30.28125 21.859375 30.492188 21.210938 30.90625 C 20.570312 31.320312 20.023438 31.859375 19.585938 32.53125 C 19.171875 33.1875 18.84375 33.9375 18.617188 34.789062 C 18.414062 35.617188 18.304688 36.445312 18.304688 37.273438 C 18.304688 38.203125 18.429688 39.101562 18.671875 39.96875 C 18.9375 40.820312 19.289062 41.570312 19.75 42.21875 C 20.21875 42.875 20.773438 43.398438 21.421875 43.789062 C 22.070312 44.1875 22.773438 44.382812 23.546875 44.382812 C 23.945312 44.382812 24.351562 44.328125 24.773438 44.210938 C 25.195312 44.085938 25.59375 43.898438 25.976562 43.648438 C 26.382812 43.390625 26.75 43.0625 27.078125 42.664062 C 27.40625 42.25 27.679688 41.757812 27.890625 41.1875 L 30.851562 43.109375 C 30.570312 43.898438 30.15625 44.601562 29.617188 45.21875 C 29.09375 45.804688 28.492188 46.3125 27.8125 46.726562 C 27.132812 47.140625 26.414062 47.453125 25.664062 47.671875 C 24.914062 47.890625 24.171875 48 23.4375 48 C 22.148438 48 20.960938 47.6875 19.875 47.054688 C 18.8125 46.421875 17.890625 45.601562 17.101562 44.59375 C 16.335938 43.5625 15.734375 42.40625 15.296875 41.125 C 14.875 39.820312 14.664062 38.5 14.664062 37.15625 "/>
<path style=" stroke:none;fill-rule:nonzero;fill:rgb(86.27451%,86.27451%,86.27451%);fill-opacity:1;" d="M 49.335938 35.257812 L 45.539062 35.257812 L 44.671875 39.320312 L 48.101562 39.320312 L 48.101562 42.28125 L 44.046875 42.28125 L 42.835938 47.820312 L 40.007812 47.820312 L 41.242188 42.28125 L 38.101562 42.28125 L 36.921875 47.820312 L 34.09375 47.820312 L 35.296875 42.28125 L 32.367188 42.28125 L 32.367188 39.320312 L 35.929688 39.320312 L 36.789062 35.257812 L 33.59375 35.257812 L 33.59375 32.476562 L 37.390625 32.476562 L 38.625 26.789062 L 41.453125 26.789062 L 40.195312 32.476562 L 43.335938 32.476562 L 44.539062 26.789062 L 47.367188 26.789062 L 46.140625 32.476562 L 49.335938 32.476562 L 49.335938 35.257812 M 41.867188 39.320312 L 42.710938 35.257812 L 39.59375 35.257812 L 38.726562 39.320312 L 41.867188 39.320312 "/>
</g>
</svg>

<svg xmlns="http://www.w3.org/2000/svg" viewBox="0 0 64 64">
 <g>
  <path d="m 10.672 0 c -1.375 0 -2.672 1.355 -2.672 2.789 l 0 58.42 c 0 1.355 1.375 2.789 2.672 2.789 l 42.656 0 c 1.297 0 2.672 -1.434 2.672 -2.789 l 0 -43.21 l -18 -18 m -27.328 0" style="fill:#2d2d2d;fill-opacity:1;stroke:none;fill-rule:nonzero"/>
  <path d="m 42 18 l 14 14 l 0 -14 m -14 0" style="fill:#000;fill-opacity:0.196;stroke:none;fill-rule:nonzero"/>
  <path d="m 38 0 l 17.984 18 l -15.227 0 c -1.348 0 -2.758 -1.426 -2.758 -2.773 m 0 -15.227" style="fill:#fff;fill-opacity:0.392;stroke:none;fill-rule:nonzero"/>
  <path d="m 14.664 37.16 c 0 -1.281 0.203 -2.547 0.602 -3.797 c 0.406 -1.258 0.984 -2.383 1.734 -3.375 c 0.766 -0.984 1.695 -1.789 2.797 -2.398 c 1.102 -0.609 2.359 -0.922 3.773 -0.922 c 1.656 0 3.086 0.43 4.297 1.273 c 1.219 0.852 2.117 1.961 2.695 3.32 l -2.773 2.164 c -0.211 -0.594 -0.484 -1.086 -0.813 -1.484 c -0.336 -0.414 -0.703 -0.734 -1.102 -0.977 c -0.383 -0.234 -0.789 -0.406 -1.203 -0.5 c -0.422 -0.117 -0.82 -0.18 -1.211 -0.18 c -0.852 0 -1.602 0.211 -2.25 0.625 c -0.641 0.414 -1.188 0.953 -1.625 1.625 c -0.414 0.656 -0.742 1.406 -0.969 2.258 c -0.203 0.828 -0.313 1.656 -0.313 2.484 c 0 0.93 0.125 1.828 0.367 2.695 c 0.266 0.852 0.617 1.602 1.078 2.25 c 0.469 0.656 1.023 1.18 1.672 1.57 c 0.648 0.398 1.352 0.594 2.125 0.594 c 0.398 0 0.805 -0.055 1.227 -0.172 c 0.422 -0.125 0.82 -0.313 1.203 -0.563 c 0.406 -0.258 0.773 -0.586 1.102 -0.984 c 0.328 -0.414 0.602 -0.906 0.813 -1.477 l 2.961 1.922 c -0.281 0.789 -0.695 1.492 -1.234 2.109 c -0.523 0.586 -1.125 1.094 -1.805 1.508 c -0.68 0.414 -1.398 0.727 -2.148 0.945 c -0.75 0.219 -1.492 0.328 -2.227 0.328 c -1.289 0 -2.477 -0.313 -3.563 -0.945 c -1.063 -0.633 -1.984 -1.453 -2.773 -2.461 c -0.766 -1.031 -1.367 -2.188 -1.805 -3.469 c -0.422 -1.305 -0.633 -2.625 -0.633 -3.969" style="fill:#dcdcdc;fill-opacity:1;stroke:none;fill-rule:nonzero"/>
  <path d="m 49.34 35.26 l -3.797 0 l -0.867 4.063 l 3.43 0 l 0 2.961 l -4.055 0 l -1.211 5.539 l -2.828 0 l 1.234 -5.539 l -3.141 0 l -1.18 5.539 l -2.828 0 l 1.203 -5.539 l -2.93 0 l 0 -2.961 l 3.563 0 l 0.859 -4.063 l -3.195 0 l 0 -2.781 l 3.797 0 l 1.234 -5.688 l 2.828 0 l -1.258 5.688 l 3.141 0 l 1.203 -5.688 l 2.828 0 l -1.227 5.688 l 3.195 0 l 0 2.781 m -7.469 4.063 l 0.844 -4.063 l -3.117 0 l -0.867 4.063 l 3.141 0" style="fill:#dcdcdc;fill-opacity:1;stroke:none;fill-rule:nonzero"/>
 </g>
</svg>
